X:1006
T:Some say the devil is dead
R:Fling
P:(Fling)
B:Irish Traditional Music Session Tunes
S:pubsco~4.abc- Irish Traditional Music Session Tunes
Z:Transcription, chords:Mike Long
M:C|
L:1/8
K:G
L:1/8
"G"D2D>E G>AB>A|"C"GE~E2 cE~E2|"G"D2D>E G>AB>c|"G"d>ed>B "D"~A2"G"G2:|\
"G"d2d>c B>cd2|"C"~e2e>d e>fg2|
"G"d2d>cB>c d>B|"G"G>AB>G "D"~A2"G"G2|\
"G"d2d>c B>cd2|"C"~e2e>d e>fg2|"G"d>eg>d "(C)"(3(efg) d>B|"G"G>AB>G "D"~A2"G"G2|]
